src/topics/icons/zeit.svg

<svg height="101" preserveAspectRatio="xMidYMid" viewBox="0 0 512 101" width="512" xmlns="http://www.w3.org/2000/svg" xmlns:xlink="http://www.w3.org/1999/xlink"><linearGradient id="a" x1="100.929941%" x2="41.768783%" y1="181.283245%" y2="100%"><stop offset="0" stop-color="#fff"/><stop offset="1"/></linearGradient><path d="m56.8576128 0 56.8576132 100.874954h-113.715226z" fill="url(#a)"/><path d="m191.260512 75.8350719h45.612566v-7.9180737h-34.237305l33.679694-48.0660529v-6.9143742h-44.497344v7.9180737h33.122083l-33.679694 48.0660529zm93.344052 0h40.928634v-7.9180737h-31.672294v-20.1855118h27.545974v-7.9180737h-27.545974v-18.9587679h31.672294v-7.9180737h-40.928634zm90.221431 0h39.924935v-7.9180737h-15.278537v-47.0623534h15.278537v-7.9180737h-39.924935v7.9180737h15.390059v47.0623534h-15.390059zm105.61149 0h9.25634v-54.9804271h21.412255v-7.9180737h-51.857806v7.9180737h21.189211z" fill="#333"/></svg>

<?xml version="1.0" encoding="UTF-8"?>
<svg width="512px" height="101px" viewBox="0 0 512 101" version="1.1" xmlns="http://www.w3.org/2000/svg" xmlns:xlink="http://www.w3.org/1999/xlink" preserveAspectRatio="xMidYMid">
    <defs>
        <linearGradient x1="100.929941%" y1="181.283245%" x2="41.7687834%" y2="100%" id="linearGradient-1">
            <stop stop-color="#FFFFFF" offset="0%"></stop>
            <stop stop-color="#000000" offset="100%"></stop>
        </linearGradient>
    </defs>
	<g>
		<polygon fill="url(#linearGradient-1)" points="56.8576128 0 113.715226 100.874954 0 100.874954"></polygon>
		<path d="M191.260512,75.8350719 L236.873078,75.8350719 L236.873078,67.9169982 L202.635773,67.9169982 L236.315467,19.8509453 L236.315467,12.9365711 L191.818123,12.9365711 L191.818123,20.8546448 L224.940206,20.8546448 L191.260512,68.9206977 L191.260512,75.8350719 Z M284.604564,75.8350719 L325.533198,75.8350719 L325.533198,67.9169982 L293.860904,67.9169982 L293.860904,47.7314864 L321.406878,47.7314864 L321.406878,39.8134127 L293.860904,39.8134127 L293.860904,20.8546448 L325.533198,20.8546448 L325.533198,12.9365711 L284.604564,12.9365711 L284.604564,75.8350719 Z M374.825995,75.8350719 L414.75093,75.8350719 L414.75093,67.9169982 L399.472393,67.9169982 L399.472393,20.8546448 L414.75093,20.8546448 L414.75093,12.9365711 L374.825995,12.9365711 L374.825995,20.8546448 L390.216054,20.8546448 L390.216054,67.9169982 L374.825995,67.9169982 L374.825995,75.8350719 Z M480.437485,75.8350719 L489.693825,75.8350719 L489.693825,20.8546448 L511.10608,20.8546448 L511.10608,12.9365711 L459.248274,12.9365711 L459.248274,20.8546448 L480.437485,20.8546448 L480.437485,75.8350719 Z" fill="#333333"></path>
	</g>
</svg>
